X:2
T:Pip Murphy's (Switch to D Whistle)
M:6/8
L:1/8
S:L.Nugent #1 Trk 9
R:Dbl Jig
Z:scribed by Dave Marshall
K:G
|: G3 g2e | dBG AGE | DGG FGA | ~B3 AGE |
G2g g2e | dBG AGE | DGG FGA | BGF G3 :|
~e3 gfe | ~e3 gfe | eBe gfe | fdB ~B3 |
e3 gfg | agf g3 | ~B3 GAB | AGE ~E3 |
e3 gfe | bef gfe | bef gfe | fdB ~B3 |
e3 gfg | agf g3 | ~B3 GAB | AGE DEF |
